packages/icons/src/svg/smiley-neutral.svg

<svg xmlns="http://www.w3.org/2000/svg" viewBox="0 0 16 16">
  <g fill-rule="nonzero">
    <path d="M12.856,12.8551 C11.611,14.0991 9.898,14.8661 8,14.8661 C6.102,14.8661 4.39,14.0991 3.145,12.8551 C1.901,11.6111 1.134,9.8981 1.134,8.0001 C1.134,6.1031 1.901,4.3901 3.145,3.1451 C4.39,1.9011 6.102,1.1341 8,1.1341 C9.898,1.1341 11.611,1.9011 12.856,3.1451 C14.099,4.3901 14.866,6.1031 14.866,8.0001 C14.866,9.8981 14.099,11.6111 12.856,12.8551 M8,0.0001 C3.581,0.0001 0,3.5821 0,8.0001 C0,12.4181 3.581,16.0001 8,16.0001 C12.419,16.0001 16,12.4181 16,8.0001 C16,3.5821 12.419,0.0001 8,0.0001"/>
    <path d="M6.752 6.5367C6.752 5.8737 6.215 5.3367 5.552 5.3367 4.889 5.3367 4.352 5.8737 4.352 6.5367 4.352 7.1987 4.889 7.7367 5.552 7.7367 6.215 7.7367 6.752 7.1987 6.752 6.5367M10.4951 5.3365C9.8321 5.3365 9.2951 5.8735 9.2951 6.5365 9.2951 7.1985 9.8321 7.7365 10.4951 7.7365 11.1581 7.7365 11.6951 7.1985 11.6951 6.5365 11.6951 5.8735 11.1581 5.3365 10.4951 5.3365M10.4346 9.8521L5.5656 9.8521C5.1816 9.8521 4.8696 10.1641 4.8696 10.5471 4.8696 10.9311 5.1816 11.2431 5.5656 11.2431L10.4346 11.2431C10.8186 11.2431 11.1306 10.9311 11.1306 10.5471 11.1306 10.1641 10.8186 9.8521 10.4346 9.8521"/>
  </g>
</svg>

<svg xmlns="http://www.w3.org/2000/svg" viewBox="0 0 16 16">
  <path d="M12.856 12.855A6.842 6.842 0 0 1 8 14.866a6.84 6.84 0 0 1-4.855-2.01A6.837 6.837 0 0 1 1.134 8a6.84 6.84 0 0 1 2.011-4.855A6.84 6.84 0 0 1 8 1.135a6.84 6.84 0 0 1 4.856 2.01A6.844 6.844 0 0 1 14.866 8a6.84 6.84 0 0 1-2.01 4.855M8 0a8 8 0 0 0-8 8 8 8 0 0 0 8 8 8 8 0 0 0 8-8 8 8 0 0 0-8-8"/>
  <path d="M6.752 6.537a1.2 1.2 0 1 0-2.4-.001 1.2 1.2 0 0 0 2.4 0m3.743-1.2a1.2 1.2 0 1 0 0 2.4 1.2 1.2 0 0 0 0-2.4m-.06 4.516h-4.87a.696.696 0 0 0 0 1.391h4.87a.697.697 0 0 0 0-1.39"/>
</svg>
